16x16/apps/lutris_trackmania-nation-forever.svg

<svg width="16" height="16" version="1.1" xmlns="http://www.w3.org/2000/svg">
 <rect width="16" height="16" rx=".80000001" ry=".80000001" style="fill:#57a534"/>
 <path d="m1 6v1h5v-1h-5zm6 0v1h7v3h1v-4h-8zm-6 2v1h1v1h1v-2h-2zm3 0v2h1v-1h1v-1h-2zm3 0v2h1v-2h-1zm2 0v2h0.5v-1.5h1v1.5h0.5 0.5v-1.5h1v1.5h0.5v-2h-2-2z" style="fill:#f4f4f7"/>
</svg>

<svg width="16" height="16" xmlns="http://www.w3.org/2000/svg"><rect width="16" height="16" rx=".8" ry=".8" style="fill:#57a534"/><path d="M1 6v1h5V6H1zm6 0v1h7v3h1V6H7zM1 8v1h1v1h1V8H1zm3 0v2h1V9h1V8H4zm3 0v2h1V8H7zm2 0v2h.5V8.5h1V10h1V8.5h1V10h.5V8H9z" style="fill:#f4f4f7"/></svg>
